src/assets/icons/svg/sleep.svg

<svg t="1573638175812" class="icon" viewBox="0 0 1040 1024" version="1.1" xmlns="http://www.w3.org/2000/svg" p-id="2164" width="48" height="48"><path d="M983.04 385.588224l-45.515776 0-32.97792 0-29.191168-22.818816-24.89344-19.458048-0.279552-0.219136-0.006144 0c-6.960128-5.46304-15.72352-8.733696-25.259008-8.733696L358.4 334.358528c-12.920832 0-24.436736 5.988352-31.94368 15.3344 5.98016-10.930176 9.38496-23.471104 9.38496-36.808704 0-42.415104-34.383872-76.8-76.8-76.8s-76.8 34.384896-76.8 76.8c0 8.206336 1.30048 16.106496 3.684352 23.52128-7.057408-2.644992-14.44864-4.605952-22.096896-5.793792L163.828736 143.36c0-22.621184-18.337792-40.96-40.96-40.96L40.96 102.4c-22.621184 0-40.96 18.338816-40.96 40.96l0 737.28c0 22.622208 18.338816 40.96 40.96 40.96l81.907712 0c22.622208 0 40.96-18.337792 40.96-40.96L163.827712 733.755392l159.10912 0c7.084032 12.235776 20.306944 20.473856 35.463168 20.473856l449.49504 0 0 126.410752c0 22.622208 18.338816 40.96 40.96 40.96l81.907712 0c22.622208 0 40.96-18.337792 40.96-40.96L971.722752 754.229248l11.317248 0c22.622208 0 40.96-18.338816 40.96-40.96l0-286.72C1024 403.92704 1005.662208 385.588224 983.04 385.588224zM111.603712 847.872c0 11.31008-9.168896 20.48-20.48 20.48L72.704 868.352c-11.311104 0-20.48-9.16992-20.48-20.48l0-671.744c0-11.311104 9.168896-20.48 20.48-20.48l18.419712 0c11.311104 0 20.48 9.168896 20.48 20.48L111.603712 847.872zM321.460224 357.603328c-2.576384 5.361664-4.020224 11.370496-4.020224 17.7152l0 55.768064-58.918912 0c-1.458176-15.29856-5.972992-29.70624-12.93312-42.600448 4.370432 0.772096 8.860672 1.19808 13.453312 1.19808C284.768256 389.684224 307.52256 377.022464 321.460224 357.603328zM205.831168 431.086592l-42.003456 0L163.827712 384.055296C185.330688 390.523904 201.771008 408.646656 205.831168 431.086592zM163.827712 483.310592l153.612288 0 0 198.2208L163.827712 681.531392 163.827712 483.310592zM919.498752 847.872c0 11.31008-9.167872 20.48-20.48 20.48l-18.419712 0c-11.31008 0-20.48-9.16992-20.48-20.48l0-93.642752 59.379712 0L919.498752 847.872zM971.776 681.524224c0 11.312128-9.168896 20.48-20.48 20.48l-561.152 0c-11.311104 0-20.48-9.167872-20.48-20.48L369.664 407.063552c0-11.311104 9.168896-20.48 20.48-20.48l395.394048 0 32.97792 0 29.1584 22.793216 25.13408 19.647488 0.039936 0c6.965248 5.474304 15.739904 8.749056 25.285632 8.749056l0 0.04096 53.161984 0c11.311104 0 20.48 9.168896 20.48 20.48L971.776 681.524224z" p-id="2165"></path></svg>

<svg class="icon" viewBox="0 0 1040 1024" xmlns="http://www.w3.org/2000/svg" width="48" height="48"><path d="M983.04 385.588h-78.494l-29.19-22.819-24.894-19.458-.28-.219h-.006c-6.96-5.463-15.724-8.733-25.259-8.733H358.4c-12.92 0-24.437 5.988-31.944 15.334 5.98-10.93 9.385-23.471 9.385-36.809 0-42.415-34.384-76.8-76.8-76.8s-76.8 34.385-76.8 76.8a76.71 76.71 0 0 0 3.685 23.522 111.838 111.838 0 0 0-22.097-5.794V143.36c0-22.621-18.338-40.96-40.96-40.96H40.96C18.339 102.4 0 120.739 0 143.36v737.28c0 22.622 18.339 40.96 40.96 40.96h81.908c22.622 0 40.96-18.338 40.96-40.96V733.755h159.109c7.084 12.236 20.307 20.474 35.463 20.474h449.495V880.64c0 22.622 18.339 40.96 40.96 40.96h81.908c22.622 0 40.96-18.338 40.96-40.96V754.23h11.317c22.622 0 40.96-18.34 40.96-40.96V426.55c0-22.623-18.338-40.962-40.96-40.962zM111.604 847.872c0 11.31-9.17 20.48-20.48 20.48h-18.42c-11.311 0-20.48-9.17-20.48-20.48V176.128c0-11.311 9.169-20.48 20.48-20.48h18.42c11.31 0 20.48 9.169 20.48 20.48v671.744zM321.46 357.603a40.793 40.793 0 0 0-4.02 17.716v55.768h-58.919a111.898 111.898 0 0 0-12.933-42.6c4.37.771 8.86 1.197 13.453 1.197 25.727 0 48.482-12.662 62.42-32.08zm-115.629 73.484h-42.003v-47.032c21.503 6.469 37.943 24.592 42.003 47.032zm-42.003 52.224H317.44v198.22H163.828v-198.22zm755.67 364.561c0 11.31-9.167 20.48-20.48 20.48H880.6c-11.31 0-20.48-9.17-20.48-20.48v-93.643h59.38v93.643zm52.278-166.348c0 11.312-9.169 20.48-20.48 20.48H390.144c-11.311 0-20.48-9.168-20.48-20.48v-274.46c0-11.312 9.169-20.48 20.48-20.48h428.372l29.158 22.793 25.134 19.647h.04c6.966 5.475 15.74 8.75 25.286 8.75v.04h53.162c11.311 0 20.48 9.17 20.48 20.48v223.23z"/></svg>
